dist/img/icons/conditions__icons/Card1.svg

<svg width="24" height="24" viewBox="0 0 24 24" fill="none" xmlns="http://www.w3.org/2000/svg">
<path d="M21 5.25H3C2.58579 5.25 2.25 5.58579 2.25 6V18C2.25 18.4142 2.58579 18.75 3 18.75H21C21.4142 18.75 21.75 18.4142 21.75 18V6C21.75 5.58579 21.4142 5.25 21 5.25Z" stroke="white" stroke-width="1.38462" stroke-linecap="round" stroke-linejoin="round"/>
<path d="M15.749 15.75H18.749" stroke="white" stroke-width="1.38462" stroke-linecap="round" stroke-linejoin="round"/>
<path d="M11.249 15.75H12.749" stroke="white" stroke-width="1.38462" stroke-linecap="round" stroke-linejoin="round"/>
<path d="M2.24902 9.08008H21.749" stroke="white" stroke-width="1.38462" stroke-linecap="round" stroke-linejoin="round"/>
</svg>

<svg width="24" height="24" fill="none" xmlns="http://www.w3.org/2000/svg"><path d="M21 5.25H3a.75.75 0 00-.75.75v12c0 .414.336.75.75.75h18a.75.75 0 00.75-.75V6a.75.75 0 00-.75-.75zm-5.251 10.5h3m-7.5 0h1.5m-10.5-6.67h19.5" stroke="#fff" stroke-width="1.385" stroke-linecap="round" stroke-linejoin="round"/></svg>
